X:34
T:Mrs Martha Knowles
C:Phil Cunningham
M:C
L:1/8
K:AMin
e2 ||: A2 e2 deed| e2 dB gdde| A2 BG AABd| e2 Bg AAAe :|
|: Aaag aeea| g2 eg d2 eg| BGGA B2 AB| edBg AAAe :|
|:Aeed eAAe| dgBd Gdde| A2 BG AABd| e2 Bg AAAe :|
aeea e2 a(e|e)aea gedB| A2 BG AABd|1 e2 Bg AAAe :|2 e2 Bg AA A z ||
